X:4059
T:Derobee
D:transcribed from CD "Sonneurs de Vielle en Bretagne" SCM 024
Z:abc transcription Simon Wascher
N:please mail errors to simon.wascher@chello.at
M:2/4
L:1/8
K:G
GG/G/ BG|FG A2|GA cB|G2 G2|
GG/G/ BG|FG A2|GA cB|G2 G2||
BB/B/ BB/B/|Bd d2|cc/c/ cc/c/|ce d2|
BB/B/ BB/B/|BB d2|cA BG|AF G2|]


